/* XPM */
static char * maximize_pressed_xpm[] = {
"21 29 6 1",
"       c None",
"$      c #122a18",
"@      c #122a18",
"#      c #9dff72",
".      c #122a18",
"+      c #9dff72",
".....................",
".....................",
".....................",
".....................",
".....................",
".@@@@@@@@@@@@@@@@@@@.",
"@...................@",
"@...................@",
"@...................@",
"@...................@",
"@...................@",
"@...................@",
"@...................@",
"@......#######......@",
"@......#######......@",
"@......##...##......@",
"@......##...##......@",
"@......##...##......@",
"@......#######......@",
"@......#######......@",
"@...................@",
"@...................@",
"@...................@",
"@...................@",
"@...................@",
".@@@@@@@@@@@@@@@@@@@.",
".....................",
".....................",
"....................."};
