/* XPM */
static char * stick_active_xpm[] = {
"21 29 5 1",
"       c None",
"$      c #122a18",
"@      c #122a18",
"#      c #9dff72",
".      c #122a18",
".....................",
".....................",
".....................",
".....................",
".....................",
".....................",
".....................",
".....................",
".....................",
".....................",
".....................",
".........@#@.........",
".........###.........",
".........###.........",
"......@#######@......",
"......#########......",
"......@#######@......",
".........###.........",
".........###.........",
".........@#@.........",
".....................",
".....................",
".....................",
".....................",
".....................",
".....................",
".....................",
".....................",
"....................."};
